X:6357
T:Swallowtail
O:england
C:Trad
S: photocopy
M:4/4
I:speed 250
I:part 1
K:G
|:gf | eA (3cBA eA (3cBA | cdef gedB | G2 BG dGBG | Bdef g2 fg |
eA (3cBA eA (3cBA | cdef g2 fg | afge dBGB | AcBG A2:|
|: z2 | eaag a2 ag | edef gedB | G2 BG dGBG | Bdef g2 fg |
eaag abag | edef g2 fg | afge dBGB | AcBG A2:|
I:final
|:B2 | c2 E2 c2 E2 | A2 c2 e2 F2 | D2 D2 B2 G2 | D2 G2 B2 AB |
c2 E2 c2 E2 | A2 c2 e2 d2 | cABG BGEG | E2 D2 C2:|
|: z2 | c2 c2 c4 | cBcd ec G2 | D2 G2 B2 G2 | D2 G2 B2 AB |
c2 c2 c4 | cBcd e2 d2 | cABG BGEG | E2 D2 C2:|
M:4/4


